lib/brands/icons/vs-code.svg

<svg xmlns="http://www.w3.org/2000/svg" fill="none" aria-hidden="true" viewBox="0 0 48 48"><g id="vs-code-Icon"><g id="vs_code"><path id="vector" fill="url(#paint0_linear_94_19101)" d="M33.002 7.43588C33.002 6.30578 31.7367 6.30577 31.1743 6.44703C31.9616 5.82548 32.8848 5.97617 33.2129 6.16452L40.8157 9.89246C41.5402 10.2477 41.9997 10.9868 41.9997 11.7967V36.3212C41.9997 37.142 41.5279 37.8889 40.7888 38.2384L33.6346 41.6212C33.1426 41.8331 32.0741 42.3557 31.1743 41.6212C32.299 41.8331 32.9083 41.0326 33.002 40.4911V7.43588Z"/><path id="vector_2" fill="url(#paint1_linear_94_19101)" d="M31.2659 6.42659C31.8627 6.30865 33.0023 6.36334 33.0023 7.43581V15.8774L9.95176 33.3153C9.54885 33.6201 8.98183 33.5695 8.63866 33.1982L6.26297 30.6275C5.8908 30.2248 5.91684 29.5944 6.32094 29.2241L31.1746 6.44697L31.2659 6.42659Z"/><path id="vector_3" fill="url(#paint2_linear_94_19101)" d="M33.0023 32.1908L9.95176 14.753C9.54885 14.4482 8.98183 14.4987 8.63866 14.8701L6.26297 17.4407C5.8908 17.8435 5.91684 18.4738 6.32094 18.8442L31.1746 41.6213V41.6213C32.2993 41.8332 32.9085 41.0326 33.0023 40.4911V32.1908Z"/></g></g><defs><linearGradient id="paint0_linear_94_19101" x1="36.587" x2="36.587" y1="6" y2="42" gradientUnits="userSpaceOnUse"><stop stop-color="#32B5F1"/><stop offset="1" stop-color="#2B9FED"/></linearGradient><linearGradient id="paint1_linear_94_19101" x1="33.0023" x2="7.31362" y1="10.5435" y2="32.1064" gradientUnits="userSpaceOnUse"><stop stop-color="#0F6FB3"/><stop offset="0.270551" stop-color="#1279B7"/><stop offset="0.421376" stop-color="#1176B5"/><stop offset="0.618197" stop-color="#0E69AC"/><stop offset="0.855344" stop-color="#0F70AF"/><stop offset="1" stop-color="#0F6DAD"/></linearGradient><linearGradient id="paint2_linear_94_19101" x1="7.48528" x2="33.1017" y1="16.2648" y2="37.4752" gradientUnits="userSpaceOnUse"><stop stop-color="#1791D2"/><stop offset="1" stop-color="#1173C5"/></linearGradient></defs></svg>

<svg xmlns="http://www.w3.org/2000/svg" fill="none" aria-hidden="true" viewBox="0 0 48 48"><path fill="url(#a)" d="M33.002 7.436c0-1.13-1.265-1.13-1.828-.989.788-.622 1.71-.47 2.039-.282l7.603 3.727A2.12 2.12 0 0 1 42 11.797V36.32a2.12 2.12 0 0 1-1.211 1.917l-7.154 3.383c-.492.212-1.56.735-2.46 0 1.124.212 1.733-.588 1.827-1.13V7.436Z"/><path fill="url(#b)" d="M31.266 6.427c.597-.118 1.736-.064 1.736 1.009v8.441L9.952 33.315a.98.98 0 0 1-1.313-.117l-2.376-2.57a.992.992 0 0 1 .058-1.404L31.175 6.447l.09-.02Z"/><path fill="url(#c)" d="M33.002 32.19 9.952 14.754a.98.98 0 0 0-1.313.117l-2.376 2.57a.992.992 0 0 0 .058 1.404l24.854 22.777c1.124.212 1.733-.588 1.827-1.13v-8.3Z"/><defs><linearGradient id="a" x1="36.587" x2="36.587" y1="6" y2="42" gradientUnits="userSpaceOnUse"><stop stop-color="#32B5F1"/><stop offset="1" stop-color="#2B9FED"/></linearGradient><linearGradient id="b" x1="33.002" x2="7.314" y1="10.543" y2="32.106" gradientUnits="userSpaceOnUse"><stop stop-color="#0F6FB3"/><stop offset=".271" stop-color="#1279B7"/><stop offset=".421" stop-color="#1176B5"/><stop offset=".618" stop-color="#0E69AC"/><stop offset=".855" stop-color="#0F70AF"/><stop offset="1" stop-color="#0F6DAD"/></linearGradient><linearGradient id="c" x1="7.485" x2="33.102" y1="16.265" y2="37.475" gradientUnits="userSpaceOnUse"><stop stop-color="#1791D2"/><stop offset="1" stop-color="#1173C5"/></linearGradient></defs></svg>
